public/images/background/dashboard-flowers.svg

<svg width="270" height="143" viewBox="0 0 270 143" fill="none" xmlns="http://www.w3.org/2000/svg">
<path d="M245.419 96.7473C241.841 103.903 234.983 108.508 232.001 109.916C234.072 104.698 239.654 92.4239 245.419 85.069C252.624 75.8755 264.054 74.6332 264.303 78.8572C264.551 83.0813 249.891 87.8023 245.419 96.7473Z" fill="#14653C" stroke="black"/>
<path d="M213.365 89.293C223.105 92.4735 229.35 98.735 231.255 101.468C231.255 94.0141 223.304 86.8083 216.595 85.069C209.887 83.3297 201.19 85.3175 213.365 89.293Z" fill="#14653C" stroke="black"/>
<path d="M230.759 105.692C230.759 87.8016 226.617 77.3658 224.547 74.3841C224.878 70.7398 226.584 65.936 230.759 75.8749C235.977 88.2986 230.759 128.054 230.759 105.692Z" fill="#14653C" stroke="black"/>
<path d="M253.866 40.0137C243.729 33.4541 219.826 40.5935 209.141 44.9832C172.492 52.4373 176.84 77.0364 222.559 76.5394C268.278 76.0425 266.539 48.2134 253.866 40.0137Z" fill="#F0775C" stroke="black"/>
<path d="M246.787 45.7393C239.458 40.9975 222.179 46.1584 214.456 49.3316C187.963 54.7201 191.106 72.5022 224.155 72.143C257.205 71.7838 255.947 51.6667 246.787 45.7393Z" fill="#E35B4B"/>
<path d="M217.62 61.8153C214.241 60.2251 220.022 56.8458 223.335 55.355C227.559 53.8642 231.783 52.3733 232.529 56.1004C233.274 59.8275 221.844 63.8031 217.62 61.8153Z" fill="#F3AD11" stroke="black"/>
<path d="M9.36157 136.607C15.8916 151.758 29.4611 162.034 35.4296 165.278C31.7752 154.293 21.7155 128.368 10.7122 112.555C-3.04204 92.7892 -26.4019 88.9107 -27.4013 97.5815C-28.4008 106.252 1.19904 117.668 9.36157 136.607Z" fill="#14653C" stroke="black"/>
<path d="M76.2307 124.821C55.7961 130.185 42.2105 142.241 37.972 147.599C38.8263 132.386 56.0358 118.601 70.0589 115.827C84.0819 113.054 101.774 118.117 76.2307 124.821Z" fill="#14653C" stroke="black"/>
<path d="M38.5685 156.438C40.6367 119.608 50.3687 98.6023 54.9761 92.7033C54.7154 85.1626 51.7582 75.0757 42.0155 95.0544C29.8371 120.028 35.9833 202.476 38.5685 156.438Z" fill="#14653C" stroke="black"/>
<path d="M62.7649 11.2935C22.535 -6.65518 15.5721 2.54353 2.80686 11.2935C-22.2119 36.5843 -9.9584 57.3259 15.5721 66.9966C41.1026 76.6672 32.5924 104.905 55.802 112.255C74.3696 118.135 88.0375 106.711 92.5504 100.264C108.668 103.358 140.981 101.037 141.29 66.9966C141.677 24.4457 113.052 33.7294 62.7649 11.2935Z" fill="#F08A95" stroke="black"/>
<path d="M39.8465 14.2787C25.6113 3.13815 12.5108 15.826 7.73996 23.5625C3.09805 37.1016 2.3244 49.4797 29.4022 62.245C56.48 75.0102 51.0645 88.1623 85.492 94.3515C119.919 100.541 134.619 49.4797 115.278 38.2618C95.9362 27.0438 87.0393 53.348 69.6321 49.4797C52.2249 45.6115 57.6405 28.2045 39.8465 14.2787Z" fill="#E36974"/>
<path d="M83.3912 42.2706C95.7697 53.4886 85.3254 59.6778 71.0128 55.4227C64.3758 53.4495 58.8045 49.2149 54.7661 45.0994C60.9553 34.776 71.0128 31.0527 83.3912 42.2706Z" fill="#EBF479"/>
<path d="M48.5769 37.2419C49.7151 39.1931 51.8376 42.1149 54.7661 45.0994M54.7661 45.0994C58.8045 49.2149 64.3758 53.4495 71.0128 55.4227C85.3254 59.6778 95.7697 53.4886 83.3912 42.2706C71.0128 31.0527 60.9553 34.776 54.7661 45.0994Z" stroke="black"/>
<path d="M211.571 103.984C190.958 75.5674 182.487 79.1414 170.191 80.0938C142.847 87.5792 143.039 106.776 156.806 123.623C170.572 140.47 153.447 156.568 166.537 170.888C177.008 182.344 190.993 179.906 196.676 177.254C206.567 185.812 229.792 197.086 243.569 173.716C260.791 144.504 237.336 139.505 211.571 103.984Z" fill="#F6C5C9" stroke="black"/>
<path d="M194.565 96.9128C189.179 83.5521 175.083 87.0886 168.708 90.527C160.109 98.0212 154.643 106.256 168.244 125.855C181.846 145.454 172.868 152.373 194.161 170.362C215.455 188.351 245.945 158.969 237.067 143.52C228.188 128.072 211.567 142.68 201.095 133.075C190.623 123.469 201.296 113.614 194.565 96.9128Z" fill="#EC99A3"/>
<path d="M213.463 133.582C217.536 146.256 207.861 146.366 199.679 137.726C195.885 133.72 193.727 128.577 192.58 124.128C200.965 119.47 209.39 120.907 213.463 133.582Z" fill="#EBF479"/>
<path d="M191.439 116.239C191.448 118.039 191.748 120.901 192.58 124.128M192.58 124.128C193.727 128.577 195.885 133.72 199.679 137.726C207.861 146.366 217.536 146.256 213.463 133.582C209.39 120.907 200.965 119.47 192.58 124.128Z" stroke="black"/>
<path d="M125.291 131.455C131.821 146.606 145.391 156.882 151.359 160.126C147.705 149.141 137.645 123.217 126.642 107.404C112.888 87.6373 89.5279 83.7588 88.5285 92.4297C87.529 101.1 117.129 112.516 125.291 131.455Z" fill="#14653C" stroke="black"/>
<path d="M178.168 107.139C183.429 120.137 175.976 142.727 171.592 152.398C165.145 154.074 151.709 153.868 149.543 139.633C146.835 121.839 155.732 122.226 156.893 107.139C158.053 92.0532 171.592 90.8927 178.168 107.139Z" fill="#407300" stroke="black"/>
<path d="M165.638 64.4142L178.789 74.3582C179.615 74.9826 179.064 76.2964 178.04 76.1451L173.333 75.4495C172.996 75.3997 172.772 75.7892 172.986 76.055C173.195 76.3155 172.985 76.6987 172.653 76.6623L167.695 76.1199C167.51 76.0997 167.419 76.3377 167.569 76.4464C167.729 76.5613 167.616 76.8122 167.424 76.7696L164.711 76.1674C164.437 76.1064 164.161 76.2637 164.073 76.531C164.001 76.7506 163.805 76.9011 163.574 76.9069C161.408 76.962 150.695 77.2182 150.261 76.905C149.379 76.2694 145.696 73.9247 142.799 71.7635C141.964 71.1407 142.542 70.1572 143.526 70.4997L151.324 73.2152C152.151 73.503 152.922 72.6653 152.567 71.8653L150.803 67.8877C150.49 67.1828 151.057 66.4202 151.815 66.5639C155.404 67.2444 160.37 68.8246 163.665 69.973C164.436 70.2414 165.2 69.5338 164.981 68.7479L164.072 65.48C163.815 64.5583 164.875 63.8371 165.638 64.4142Z" fill="#16643C"/>
<path d="M181.909 76.7167L165.638 64.4142C164.875 63.8371 163.815 64.5583 164.072 65.48L164.981 68.7479C165.2 69.5338 164.436 70.2414 163.665 69.973C160.37 68.8246 155.404 67.2444 151.815 66.5639C151.057 66.4202 150.49 67.1828 150.803 67.8877L152.567 71.8653C152.922 72.6653 152.151 73.503 151.324 73.2152L143.526 70.4997C142.542 70.1572 141.964 71.1407 142.799 71.7635C145.696 73.9247 149.379 76.2694 150.261 76.905" stroke="black" stroke-linejoin="round"/>
</svg>

<svg width="270" height="143" viewBox="0 0 270 143" fill="none" xmlns="http://www.w3.org/2000/svg"><path d="M245.419 96.747c-3.578 7.156-10.436 11.761-13.418 13.169 2.071-5.218 7.653-17.492 13.418-24.847 7.205-9.194 18.635-10.436 18.884-6.212.248 4.224-14.412 8.945-18.884 17.89zm-32.054-7.454c9.74 3.18 15.985 9.442 17.89 12.175 0-7.454-7.951-14.66-14.66-16.399-6.708-1.74-15.405.248-3.23 4.224z" fill="#14653C" stroke="#000"/><path d="M230.759 105.692c0-17.89-4.142-28.326-6.212-31.308.331-3.644 2.037-8.448 6.212 1.49 5.218 12.425 0 52.18 0 29.818z" fill="#14653C" stroke="#000"/><path d="M253.866 40.014c-10.137-6.56-34.04.58-44.725 4.97-36.649 7.453-32.301 32.052 13.418 31.555 45.719-.496 43.98-28.326 31.307-36.525z" fill="#F0775C" stroke="#000"/><path d="M246.787 45.74c-7.329-4.742-24.608.418-32.331 3.592-26.493 5.388-23.35 23.17 9.699 22.811 33.05-.36 31.792-20.476 22.632-26.404z" fill="#E35B4B"/><path d="M217.62 61.815c-3.379-1.59 2.402-4.97 5.715-6.46 4.224-1.49 8.448-2.982 9.194.745.745 3.727-10.685 7.703-14.909 5.715z" fill="#F3AD11" stroke="#000"/><path d="M9.362 136.607c6.53 15.151 20.1 25.427 26.068 28.671-3.655-10.985-13.715-36.91-24.718-52.723C-3.042 92.789-26.402 88.911-27.4 97.581c-1 8.671 28.6 20.087 36.763 39.026zm66.868-11.786c-20.434 5.364-34.02 17.42-38.258 22.778.854-15.213 18.064-28.998 32.087-31.772 14.023-2.773 31.715 2.29 6.172 8.994z" fill="#14653C" stroke="#000"/><path d="M38.569 156.438c2.068-36.83 11.8-57.836 16.407-63.735-.26-7.54-3.218-17.627-12.96 2.351-12.179 24.974-6.033 107.422-3.447 61.384z" fill="#14653C" stroke="#000"/><path d="M62.765 11.293c-40.23-17.948-47.193-8.75-59.958 0-25.019 25.291-12.765 46.033 12.765 55.704 25.53 9.67 17.02 37.908 40.23 45.258 18.568 5.88 32.235-5.544 36.748-11.991 16.118 3.094 48.431.773 48.74-33.267.387-42.551-28.238-33.268-78.525-55.703z" fill="#F08A95" stroke="#000"/><path d="M39.846 14.279C25.611 3.139 12.511 15.826 7.74 23.563 3.098 37.102 2.324 49.48 29.402 62.245s21.663 25.917 56.09 32.107c34.427 6.189 49.127-44.872 29.786-56.09C95.936 27.044 87.039 53.348 69.632 49.48 52.225 45.612 57.64 28.205 39.846 14.279z" fill="#E36974"/><path d="M83.391 42.27c12.379 11.22 1.934 17.409-12.378 13.154-6.637-1.974-12.209-6.208-16.247-10.324 6.19-10.323 16.247-14.046 28.625-2.828z" fill="#EBF479"/><path d="M48.577 37.242c1.138 1.951 3.26 4.873 6.19 7.857m0 0c4.037 4.116 9.609 8.35 16.246 10.324C85.325 59.678 95.77 53.489 83.39 42.27c-12.378-11.218-22.436-7.495-28.625 2.828z" stroke="#000"/><path d="M211.571 103.984c-20.613-28.417-29.084-24.843-41.38-23.89-27.344 7.485-27.152 26.682-13.385 43.529 13.766 16.847-3.359 32.945 9.731 47.265 10.471 11.456 24.456 9.018 30.139 6.366 9.891 8.558 33.116 19.832 46.893-3.538 17.222-29.212-6.233-34.211-31.998-69.732z" fill="#F6C5C9" stroke="#000"/><path d="M194.565 96.913c-5.386-13.36-19.482-9.824-25.857-6.386-8.599 7.494-14.065 15.729-.464 35.328 13.602 19.599 4.624 26.518 25.917 44.507 21.294 17.989 51.784-11.393 42.906-26.842-8.879-15.448-25.5-.84-35.972-10.445-10.472-9.606.201-19.461-6.53-36.162z" fill="#EC99A3"/><path d="M213.463 133.582c4.073 12.674-5.602 12.784-13.784 4.144-3.794-4.006-5.952-9.149-7.099-13.598 8.385-4.658 16.81-3.221 20.883 9.454z" fill="#EBF479"/><path d="M191.439 116.239c.009 1.8.309 4.662 1.141 7.889m0 0c1.147 4.449 3.305 9.592 7.099 13.598 8.182 8.64 17.857 8.53 13.784-4.144-4.073-12.675-12.498-14.112-20.883-9.454z" stroke="#000"/><path d="M125.291 131.455c6.53 15.151 20.1 25.427 26.068 28.671-3.654-10.985-13.714-36.909-24.717-52.722-13.754-19.767-37.114-23.645-38.114-14.974-.999 8.67 28.601 20.086 36.763 39.025z" fill="#14653C" stroke="#000"/><path d="M178.168 107.139c5.261 12.998-2.192 35.588-6.576 45.259-6.447 1.676-19.883 1.47-22.049-12.765-2.708-17.794 6.189-17.407 7.35-32.494 1.16-15.086 14.699-16.246 21.275 0z" fill="#407300" stroke="#000"/><path d="m165.638 64.414 13.151 9.944c.826.625.275 1.938-.749 1.787l-4.707-.695a.375.375 0 0 0-.347.605.375.375 0 0 1-.333.607l-4.958-.542c-.185-.02-.276.218-.126.326.16.115.047.366-.145.324l-2.713-.603a.547.547 0 0 0-.638.364.538.538 0 0 1-.499.376c-2.166.055-12.879.311-13.313-.002-.882-.636-4.565-2.98-7.462-5.142-.835-.622-.257-1.606.727-1.263l7.798 2.715c.827.288 1.598-.55 1.243-1.35l-1.764-3.977c-.313-.705.254-1.468 1.012-1.324 3.589.68 8.555 2.26 11.85 3.409.771.268 1.535-.44 1.316-1.225l-.909-3.268c-.257-.922.803-1.643 1.566-1.066z" fill="#16643C"/><path d="m181.909 76.717-16.271-12.303c-.763-.577-1.823.144-1.566 1.066l.909 3.268c.219.786-.545 1.493-1.316 1.225-3.295-1.148-8.261-2.729-11.85-3.41-.758-.143-1.325.62-1.012 1.325l1.764 3.977c.355.8-.416 1.638-1.243 1.35l-7.798-2.715c-.984-.343-1.562.64-.727 1.263 2.897 2.162 6.58 4.506 7.462 5.142" stroke="#000" stroke-linejoin="round"/></svg>
